svgs/solid/face-awesome.svg

<svg xmlns="http://www.w3.org/2000/svg" viewBox="0 0 512 512"><!--! Font Awesome Pro 6.2.0 by @fontawesome - https://fontawesome.com License - https://fontawesome.com/license (Commercial License) Copyright 2022 Fonticons, Inc. --><path d="M512 256c0 141.4-114.6 256-256 256S0 397.4 0 256S114.6 0 256 0S512 114.6 512 256zM203.5 160.4c-5.6 9.4-15.8 15.6-27.5 15.6c-17.7 0-32-14.3-32-32c0-9.1 3.8-17.4 10-23.2c-3.3-.5-6.6-.8-10-.8c-35.3 0-64 28.7-64 64v10.3c0 16.4 13.3 29.7 29.7 29.7h68.6c16.4 0 29.7-13.3 29.7-29.7V184c0-8.3-1.6-16.3-4.5-23.6zM384 176c-17.7 0-32-14.3-32-32c0-8.5 3.3-16.3 8.8-22c-5.4-1.3-11-2-16.8-2c-39.8 0-72 32.2-72 72v7.5c0 13.5 11 24.5 24.5 24.5h95.1c13.5 0 24.5-11 24.5-24.5V192c0-10.4-2.2-20.2-6.1-29.1c-5.8 8-15.2 13.1-25.9 13.1zM245.5 447.8c2.7 .1 5.4 .2 8.1 .2h4.9c55.1 0 105.1-26.1 137-67.5c0 0 0 0 0 0c15.7-20.5 27-44.6 32.4-71.3c2.2-11-6.2-21.2-17.4-21.2h0H101.6h0c-11.2 0-19.6 10.2-17.4 21.2c15.6 78.1 82.4 135 161.2 138.6zm-5.4-32.5c1.5-44.1 37.8-79.4 82.2-79.4c19.9 0 38.1 7 52.3 18.7C349 392.1 306.1 416 258.4 416h-4.9c-4.6 0-9.1-.2-13.5-.6z"/></svg>

<svg xmlns="http://www.w3.org/2000/svg" viewBox="0 0 512 512"><!--! Font Awesome Pro 6.1.2 by @fontawesome - https://fontawesome.com License - https://fontawesome.com/license (Commercial License) Copyright 2022 Fonticons, Inc. --><path d="M322.3 336C342.1 336 360.4 343 374.6 354.7C348.1 392.1 306.1 416 258.4 416H253.6C249 416 244.5 415.8 240.1 415.4C241.6 371.3 277.8 336 322.3 336zM512 256C512 397.4 397.4 512 256 512C114.6 512 0 397.4 0 256C0 114.6 114.6 0 256 0C397.4 0 512 114.6 512 256zM203.5 160.4C197.9 169.7 187.7 176 176 176C158.3 176 144 161.7 144 144C144 134.9 147.8 126.6 153.1 120.8C150.7 120.3 147.4 120 144 120C108.7 120 80 148.7 80 184V194.3C80 210.7 93.3 224 109.7 224H178.3C194.7 224 208 210.7 208 194.3V184C208 175.7 206.4 167.7 203.5 160.4zM352 144C352 135.5 355.3 127.7 360.8 121.1C355.4 120.7 349.8 120 344 120C304.2 120 272 152.2 272 192V199.5C272 213 282.1 224 296.5 224H391.5C405 224 416 213 416 199.5V192C416 181.6 413.8 171.8 409.9 162.9C404 170.8 394.6 176 384 176C366.3 176 352 161.7 352 144H352zM253.6 448H258.4C313.6 448 363.5 421.1 395.4 380.5C395.4 380.5 395.4 380.5 395.4 380.5C411.1 360.1 422.4 335.9 427.8 309.2C429.1 298.2 421.6 288 410.4 288H101.6C90.43 288 82.05 298.2 84.24 309.2C99.85 387.2 166.6 444.1 245.5 447.8C248.1 447.9 250.8 448 253.6 448L253.6 448z"/></svg>
